public/avatar/item0/21.svg

<svg xmlns:xlink="http://www.w3.org/1999/xlink" height="58.65" width="49.15" xmlns="http://www.w3.org/2000/svg"><g transform="translate(24.1 18.1)"><use height="9.4" transform="translate(-14.7 7.8)" width="29.4" xlink:href="#a"/><use height="4.65" transform="translate(-10.95 10.25)" width="21.9" xlink:href="#b"/></g><defs><g id="c" fill-rule="evenodd"><path d="M6.85 5q-.25.75-1.9 1.05L1.9 6Q-.45 5.5.1 3.55q.65-1.9 3-1.4 1.5.3 2.7 1.2 1.3.9 1.05 1.65m15.7 0q-.2-.75 1.05-1.65 1.25-.9 2.7-1.2 2.35-.5 3 1.4.55 1.95-1.8 2.45l-3.05.05q-1.65-.3-1.9-1.05" fill="#454545" transform="translate(0 -.15)"/><path d="M27.5 2.6q.85 2.15-3.1 5.35-4.35 1.05-6.65.55-1-.2-2.1-1l-.95-.8q-1.1 1.4-3.05 1.8Q9.35 9 5 7.95 1.05 4.75 1.9 2.6q.45-1.15 4.8-1.55l6.8.3q.95 1.3 1.2 1.25l1.25-1.25 6.8-.3q4.35.4 4.75 1.55" fill="#454545" transform="translate(0 -.15)"/><path d="m24.8 8.8-.2.05-7 .55q-1.3-.25-2.85-1.45-1.4 1.2-2.95 1.45-2.45.5-7-.55l-.2-.05-.15-.15q-1.1-.8-2.3-2.5-1.7-2.4-1.1-3.9Q1.7.55 6.6.15l7.1.3.3.05.7 1.05.65-1 .35-.1 7.1-.3q4.95.4 5.55 2.1.6 1.5-1.1 3.9-1.15 1.7-2.3 2.5l-.15.15m-.85-1.7q2.75-2.3 2.75-3.95v-.2q-.55-.65-4.05-.95l-6.2.2-.15.25q-.55.9-1.45 1.05-1.05.2-1.75-1.05l-.15-.25-6.15-.25q-3.55.35-4.05.95l-.05.2q0 1.6 2.75 4 3.9.95 6 .5 1.6-.3 2.55-1.45l.65-.8.7.75 2.6 1.5q2.1.45 6-.5" fill="#454545" transform="translate(0 -.15)"/><path d="m24.4 8-6.65.5q-1.65-.05-2.9-1.45l11.8-1.4L24.4 8" fill="#d5d5d5" transform="translate(0 -.15)"/><path d="m15.95 1.35 6.8-.3q4.35.4 4.75 1.55.2.35 0 1.1-5.5-2-11.65-2.25l.1-.1" fill="#fff" transform="translate(0 -.15)"/><path d="M26.6 5.85 15 7.2l-.3-.5-.15.5q-3.95.3-10.4 0l-1.8-2.5q4.6-3 11.2-3.25.85 1.2 1.15 1.15l1.15-1.15Q22 1.7 27.5 3.7q-.35 1.35-.9 2.15" fill="#ececec" transform="translate(0 -.15)"/><path d="M13.55 1.45q-6.6.25-11.2 3.25l-.5-1.3 4.6-2.3 7.05.25.05.1" fill="#d5d5d5" transform="translate(0 -.15)"/><path d="M1.95 2.5q.45-1.05 4.6-1.4-3.1 1.65-4.7 2.3l.1-.9" fill="#fff" transform="translate(0 -.15)"/><path d="M14.5 7.1q-.9 1.1-2.85 1.4Q9.25 8.95 5 8l-.85-.8q4.95.2 10.35-.1" fill="#d5d5d5" transform="translate(0 -.15)"/><path d="M12.9 2.9q1.45.6 1 2.15-.4 1.25-1.45 2.1-.7.6-3.3.5l-3.3-.4q-1.45-.4-2.05-3.4-.35-1.4 4.1-1.4l5 .45m3.6 0 5-.45q4.45 0 4.1 1.4-.6 3-2.05 3.4l-3.3.4q-2.6.1-3.3-.5-1.05-.85-1.45-2.1-.45-1.55 1-2.15" transform="translate(0 -.15)"/><path d="m5.6 1.85 1.55-.2.1.55-1.55.3-.1-.65m2.3-.3 1.5-.05.05.65H7.9v-.6m2.25.65.05-.6 1.5.15v.6l-1.55-.15m12.8-.15.15-.6 1.5.25-.1.6-1.55-.25m-2.2-.1.05-.6h1.5v.6h-1.55m-2.25-.4L20 1.4l.1.65-1.6.1v-.6M9.6 7.7l2.55-.2q.7.35.15.55l-2.75.25.05-.6m6.7-.2.3-.5q1.2.8 1.6.8v.6q-1.2 0-1.9-.9" fill="#797979" transform="translate(0 -.15)"/><path d="M3.4 1.55 8.85.7q1.4-.05 1.3.85l-4.8.35-1.55.45-.4-.8m12.25-.1q.4-.4 3.15-.5l.3.5-2.75.65V2l-.9.1.2-.65" fill="#fff" transform="translate(0 -.15)"/><path d="M3 3.55q0 .75-.35.75-.4 0-.4-.75t.4-.75q.35 0 .35.75m24.05 0q0 .75-.35.75-.4 0-.4-.75t.4-.75q.35 0 .35.75" fill="#797979" transform="translate(0 -.15)"/></g><g id="b" fill-rule="evenodd"><path d="M-2.25 10.65q2.7 1.05-.4 3.55-1.5 1.3-6.3.1-1.4-.45-1.95-2.75-.35-1.3 3.9-1.3l4.75.4" fill="#ffbc3a" transform="translate(10.95 -10.25)"/><path d="M-5.7 10.65q1.15.3-2.45.95-.25 1.45-.8 1.4-.85-.15-1.2-1.5-.3-.65 1.95-.85 1.95-.15 2.5 0" fill="#fff" transform="translate(10.95 -10.25)"/><path d="m-1.7 12.8-1.15 1.45-3.3.35.95-.85q1.8-.25 3.5-.95" fill="#b02a1d" transform="translate(10.95 -10.25)"/><path d="M-9.5 13.75q2.1.3 4.3 0l-.95.85-2.6-.3-.75-.55" fill="#cd5c26" transform="translate(10.95 -10.25)"/><path d="m2.15 10.65 4.85-.4q4.25 0 3.9 1.3-.55 2.3-1.95 2.75-4.8 1.2-6.4-.1-3.1-2.5-.4-3.55" fill="#ffbc3a" transform="translate(10.95 -10.25)"/><path d="m2.3 12.95-.15-.05Q.5 11.6 2 11.1l2.95-.2-2.65 2.05" fill="#fff" transform="translate(10.95 -10.25)"/><path d="M10.3 11.7q-.5 2.4-1.8 2.75l-1.4.25 2.05-4q1.35.35 1.15 1" fill="#b02a1d" transform="translate(10.95 -10.25)"/><path d="M2.9 14.55q3.05-1.65 5.1-4l1.15.15-2.05 4-4.2-.15" fill="#cd5c26" transform="translate(10.95 -10.25)"/></g><use height="9.4" width="29.4" xlink:href="#c" id="a"/></defs></svg>

<?xml version="1.0" encoding="UTF-8" standalone="no"?>
<svg xmlns:xlink="http://www.w3.org/1999/xlink" height="58.65px" width="49.15px" xmlns="http://www.w3.org/2000/svg">
  <g transform="matrix(1.0, 0.0, 0.0, 1.0, 24.1, 18.1)">
    <use height="9.4" transform="matrix(1.0, 0.0, 0.0, 1.0, -14.7, 7.8)" width="29.4" xlink:href="#sprite0"/>
    <use height="4.65" transform="matrix(1.0, 0.0, 0.0, 1.0, -10.95, 10.25)" width="21.9" xlink:href="#shape1"/>
  </g>
  <defs>
    <g id="sprite0" transform="matrix(1.0, 0.0, 0.0, 1.0, 0.0, -0.15)">
      <use height="9.4" transform="matrix(1.0, 0.0, 0.0, 1.0, 0.0, 0.15)" width="29.4" xlink:href="#shape0"/>
    </g>
    <g id="shape0" transform="matrix(1.0, 0.0, 0.0, 1.0, 0.0, -0.15)">
      <path d="M6.85 5.0 Q6.6 5.75 4.95 6.05 L1.9 6.0 Q-0.45 5.5 0.1 3.55 0.75 1.65 3.1 2.15 4.6 2.45 5.8 3.35 7.1 4.25 6.85 5.0" fill="#454545" fill-rule="evenodd" stroke="none"/>
      <path d="M22.55 5.0 Q22.35 4.25 23.6 3.35 24.85 2.45 26.3 2.15 28.65 1.65 29.3 3.55 29.85 5.5 27.5 6.0 L24.45 6.05 Q22.8 5.75 22.55 5.0" fill="#454545" fill-rule="evenodd" stroke="none"/>
      <path d="M27.5 2.6 Q28.35 4.75 24.4 7.95 20.05 9.0 17.75 8.5 16.75 8.3 15.65 7.5 L14.7 6.7 Q13.6 8.1 11.65 8.5 9.35 9.0 5.0 7.95 1.05 4.75 1.9 2.6 2.35 1.45 6.7 1.05 L13.5 1.35 Q14.45 2.65 14.7 2.6 L15.95 1.35 22.75 1.05 Q27.1 1.45 27.5 2.6" fill="#454545" fill-rule="evenodd" stroke="none"/>
      <path d="M24.8 8.8 L24.6 8.85 17.6 9.4 Q16.3 9.15 14.75 7.95 13.35 9.15 11.8 9.4 9.35 9.9 4.8 8.85 L4.6 8.8 4.45 8.65 Q3.35 7.85 2.15 6.15 0.45 3.75 1.05 2.25 1.7 0.55 6.6 0.15 L13.7 0.45 14.0 0.5 14.7 1.55 15.35 0.55 15.7 0.45 22.8 0.15 Q27.75 0.55 28.35 2.25 28.95 3.75 27.25 6.15 26.1 7.85 24.95 8.65 L24.8 8.8 M23.95 7.1 Q26.7 4.8 26.7 3.15 L26.7 2.95 Q26.15 2.3 22.65 2.0 L16.45 2.2 16.3 2.45 Q15.75 3.35 14.85 3.5 13.8 3.7 13.1 2.45 L12.95 2.2 6.8 1.95 Q3.25 2.3 2.75 2.9 L2.7 3.1 Q2.7 4.7 5.45 7.1 9.35 8.05 11.45 7.6 13.05 7.3 14.0 6.15 L14.65 5.35 15.35 6.1 17.95 7.6 Q20.05 8.05 23.95 7.1" fill="#454545" fill-rule="evenodd" stroke="none"/>
      <path d="M24.4 8.0 L17.75 8.5 Q16.1 8.45 14.85 7.05 L26.65 5.65 24.4 8.0" fill="#d5d5d5" fill-rule="evenodd" stroke="none"/>
      <path d="M15.95 1.35 L22.75 1.05 Q27.1 1.45 27.5 2.6 27.7 2.95 27.5 3.7 22.0 1.7 15.85 1.45 L15.95 1.35" fill="#ffffff" fill-rule="evenodd" stroke="none"/>
      <path d="M26.6 5.85 L15.0 7.2 14.7 6.7 14.55 7.2 Q10.6 7.5 4.15 7.2 L2.35 4.7 Q6.95 1.7 13.55 1.45 14.4 2.65 14.7 2.6 L15.85 1.45 Q22.0 1.7 27.5 3.7 27.15 5.05 26.6 5.85" fill="#ececec" fill-rule="evenodd" stroke="none"/>
      <path d="M13.55 1.45 Q6.95 1.7 2.35 4.7 L1.85 3.4 6.45 1.1 13.5 1.35 13.55 1.45" fill="#d5d5d5" fill-rule="evenodd" stroke="none"/>
      <path d="M1.95 2.5 Q2.4 1.45 6.55 1.1 3.45 2.75 1.85 3.4 L1.95 2.5" fill="#ffffff" fill-rule="evenodd" stroke="none"/>
      <path d="M14.5 7.1 Q13.6 8.2 11.65 8.5 9.25 8.95 5.0 8.0 L4.15 7.2 Q9.1 7.4 14.5 7.1" fill="#d5d5d5" fill-rule="evenodd" stroke="none"/>
      <path d="M12.9 2.9 Q14.35 3.5 13.9 5.05 13.5 6.3 12.45 7.15 11.75 7.75 9.15 7.65 L5.85 7.25 Q4.4 6.85 3.8 3.85 3.45 2.45 7.9 2.45 L12.9 2.9" fill="#000000" fill-rule="evenodd" stroke="none"/>
      <path d="M16.5 2.9 L21.5 2.45 Q25.95 2.45 25.6 3.85 25.0 6.85 23.55 7.25 L20.25 7.65 Q17.65 7.75 16.95 7.15 15.9 6.3 15.5 5.05 15.05 3.5 16.5 2.9" fill="#000000" fill-rule="evenodd" stroke="none"/>
      <path d="M5.6 1.85 L7.15 1.65 7.25 2.2 5.7 2.5 5.6 1.85" fill="#797979" fill-rule="evenodd" stroke="none"/>
      <path d="M7.9 1.55 L9.4 1.5 9.45 2.15 7.9 2.15 7.9 1.55" fill="#797979" fill-rule="evenodd" stroke="none"/>
      <path d="M10.15 2.2 L10.2 1.6 11.7 1.75 11.7 2.35 10.15 2.2" fill="#797979" fill-rule="evenodd" stroke="none"/>
      <path d="M22.95 2.05 L23.1 1.45 24.6 1.7 24.5 2.3 22.95 2.05" fill="#797979" fill-rule="evenodd" stroke="none"/>
      <path d="M20.75 1.95 L20.8 1.35 22.3 1.35 22.3 1.95 20.75 1.95" fill="#797979" fill-rule="evenodd" stroke="none"/>
      <path d="M18.5 1.55 L20.0 1.4 20.1 2.05 18.5 2.15 18.5 1.55" fill="#797979" fill-rule="evenodd" stroke="none"/>
      <path d="M9.6 7.7 L12.15 7.5 Q12.85 7.85 12.3 8.05 L9.55 8.3 9.6 7.7" fill="#797979" fill-rule="evenodd" stroke="none"/>
      <path d="M16.3 7.5 L16.6 7.0 Q17.8 7.8 18.2 7.8 L18.2 8.4 Q17.0 8.4 16.3 7.5" fill="#797979" fill-rule="evenodd" stroke="none"/>
      <path d="M3.4 1.55 L8.85 0.7 Q10.25 0.65 10.15 1.55 L5.35 1.9 3.8 2.35 3.4 1.55" fill="#ffffff" fill-rule="evenodd" stroke="none"/>
      <path d="M15.65 1.45 Q16.05 1.05 18.8 0.95 L19.1 1.45 16.35 2.1 16.35 2.0 15.45 2.1 15.65 1.45" fill="#ffffff" fill-rule="evenodd" stroke="none"/>
      <path d="M3.0 3.55 Q3.0 4.3 2.65 4.3 2.25 4.3 2.25 3.55 2.25 2.8 2.65 2.8 3.0 2.8 3.0 3.55" fill="#797979" fill-rule="evenodd" stroke="none"/>
      <path d="M27.05 3.55 Q27.05 4.3 26.7 4.3 26.3 4.3 26.3 3.55 26.3 2.8 26.7 2.8 27.05 2.8 27.05 3.55" fill="#797979" fill-rule="evenodd" stroke="none"/>
    </g>
    <g id="shape1" transform="matrix(1.0, 0.0, 0.0, 1.0, 10.95, -10.25)">
      <path d="M-2.25 10.65 Q0.45 11.7 -2.65 14.2 -4.15 15.5 -8.95 14.3 -10.35 13.85 -10.9 11.55 -11.25 10.25 -7.0 10.25 L-2.25 10.65" fill="#ffbc3a" fill-rule="evenodd" stroke="none"/>
      <path d="M-5.7 10.65 Q-4.55 10.95 -8.15 11.6 -8.4 13.05 -8.95 13.0 -9.8 12.85 -10.15 11.5 -10.45 10.85 -8.2 10.65 -6.25 10.5 -5.7 10.65" fill="#ffffff" fill-rule="evenodd" stroke="none"/>
      <path d="M-1.7 12.8 L-2.85 14.25 -6.15 14.6 -5.2 13.75 Q-3.4 13.5 -1.7 12.8" fill="#b02a1d" fill-rule="evenodd" stroke="none"/>
      <path d="M-9.5 13.75 Q-7.4 14.05 -5.2 13.75 L-6.15 14.6 -8.75 14.3 -9.5 13.75" fill="#cd5c26" fill-rule="evenodd" stroke="none"/>
      <path d="M2.15 10.65 L7.0 10.25 Q11.25 10.25 10.9 11.55 10.35 13.85 8.95 14.3 4.15 15.5 2.55 14.2 -0.55 11.7 2.15 10.65" fill="#ffbc3a" fill-rule="evenodd" stroke="none"/>
      <path d="M2.3 12.95 L2.15 12.9 Q0.5 11.6 2.0 11.1 L4.95 10.9 2.3 12.95" fill="#ffffff" fill-rule="evenodd" stroke="none"/>
      <path d="M10.3 11.7 Q9.8 14.1 8.5 14.45 L7.1 14.7 9.15 10.7 Q10.5 11.05 10.3 11.7" fill="#b02a1d" fill-rule="evenodd" stroke="none"/>
      <path d="M2.9 14.55 Q5.95 12.9 8.0 10.55 L9.15 10.7 7.1 14.7 2.9 14.55" fill="#cd5c26" fill-rule="evenodd" stroke="none"/>
    </g>
  </defs>
</svg>
